X: 56
T:Gerry Squires' Palette
C:Emile Benoit
M:6/8
L:1/8
Z:Gerry Strong
K:D
f2 g|:a2 b a2 g|f2 d e2 d|BAG B2 d|B2 A A2 G|F A2 d2 e|f f2 g2 f|1e2 Bc
d2|e3 f2 g:|2e2 B cBA|d3 A2 G||
|:FED F2 A|d3 d2 c|BAG B d2|B2 A A2 G|F A2 d2 e|f f2 g2 f|1e2 B c d2|e3
A2 G:|2e2 B cBA|d3||

